build/category/HookSolid.svg

<svg xmlns="http://www.w3.org/2000/svg" fill="none" viewBox="0 0 24 24" focusable="false"><path d="M0 0H24V24H0z"/><path fill="#74767B" fill-rule="evenodd" d="M10.0002 2C10.3591 2 10.6502 2.29101 10.6502 2.65L10.6502 5L13.3502 5L13.3502 2.65C13.3502 2.29101 13.6412 2 14.0002 2C14.3591 2 14.6502 2.29101 14.6502 2.65L14.6502 5L15.6917 5C16.0816 5 16.4509 5.17501 16.6978 5.47679L17.9316 6.98471C18.8592 8.1184 18.8324 9.75619 17.8683 10.859L14.2588 14.9877C14.1676 15.092 14.0711 15.1883 13.97 15.2766C14.9806 15.9257 15.6502 17.0596 15.6502 18.35C15.6502 20.3658 14.016 22 12.0002 22C9.98432 22 8.35016 20.3658 8.35016 18.35C8.35016 17.991 8.64117 17.7 9.00016 17.7C9.35914 17.7 9.65016 17.991 9.65016 18.35C9.65016 19.6478 10.7023 20.7 12.0002 20.7C13.298 20.7 14.3502 19.6478 14.3502 18.35C14.3502 17.1153 13.3981 16.1031 12.1881 16.0074C11.2964 16.0628 10.3844 15.723 9.74162 14.9877L6.13205 10.859C5.16795 9.75619 5.14119 8.1184 6.06875 6.98471L7.30249 5.47679C7.5494 5.17502 7.91872 5 8.30864 5L9.35016 5L9.35016 2.65C9.35016 2.29101 9.64117 2 10.0002 2ZM12.4952 8.05076C12.2218 7.77739 11.7786 7.77739 11.5052 8.05076L11.081 8.475C10.8076 8.74836 10.8076 9.19158 11.081 9.46495L11.5052 9.88918C11.7786 10.1625 12.2218 10.1625 12.4952 9.88918L12.9194 9.46494C13.1928 9.19158 13.1928 8.74836 12.9194 8.475L12.4952 8.05076Z"/></svg>

<svg xmlns="http://www.w3.org/2000/svg" fill="none" viewBox="0 0 24 24" focusable="false"><path fill="#74767B" fill-rule="evenodd" d="M10 2c.35 0 .65.29.65.64V5h2.7V2.64c0-.35.29-.64.65-.64.35 0 .65.29.65.64V5h1.04c.39 0 .76.17 1 .47l1.24 1.51c.92 1.13.9 2.77-.07 3.87l-3.61 4.13c-.09.11-.18.2-.28.29 1.01.65 1.68 1.78 1.68 3.08 0 2.01-1.64 3.65-3.65 3.65-2.02 0-3.65-1.64-3.65-3.65 0-.36.29-.65.65-.65.35 0 .65.29.65.65 0 1.29 1.05 2.35 2.35 2.35a2.36 2.36 0 0 0 2.35-2.35c0-1.24-.96-2.25-2.17-2.35-.89.06-1.8-.28-2.44-1.02l-3.61-4.13c-.97-1.1-.99-2.74-.07-3.87L7.3 5.47c.24-.3.61-.47 1-.47h1.05V2.64c0-.35.29-.64.65-.64m2.49 6.05a.69.69 0 0 0-.99 0l-.42.42c-.28.27-.28.72 0 .99l.42.42c.27.28.72.28.99 0l.42-.42c.28-.27.28-.72 0-.99z"/></svg>
